.local/share/icons/Gruvbox-Plus-Dark/mimetypes/scalable/application-vnd.oasis.opendocument.spreadsheet.svg

<svg width="256" height="256" viewBox="0 0 256 256" fill="none" xmlns="http://www.w3.org/2000/svg">
<g opacity="0.4" filter="url(#filter0_f)">
<path d="M55.0839 15.5636H155.608L216.009 75.7129L216.011 224.609C216.011 233.52 208.749 240.737 199.838 240.737H55.0838C46.1734 240.737 39 233.564 39 224.654V31.6474C39 22.737 46.1734 15.5636 55.0838 15.5636H55.0839Z" fill="#282828"/>
</g>
<path d="M55.0839 15H155.608L216.009 75.1493L216.011 224.045C216.011 232.956 208.749 240.174 199.838 240.174H55.0838C46.1734 240.174 39 233 39 224.09V31.0838C39 22.1734 46.1734 15 55.0838 15H55.0839Z" fill="#ebdbb2"/>
<path opacity="0.2" d="M199.838 240.174C208.749 240.174 216.011 232.956 216.011 224.046L216.01 186.5H39V224.09C39 233 46.1734 240.174 55.0838 240.174H199.838Z" fill="url(#paint0_linear)"/>
<path fill-rule="evenodd" clip-rule="evenodd" d="M155.608 20.3191H55.0839C49.1112 20.3191 44.3191 25.1111 44.3191 31.0838V224.09C44.3191 230.063 49.1111 234.855 55.0838 234.855H199.838C205.83 234.855 210.692 229.999 210.692 224.046V75.1493L155.608 20.3191ZM155.608 15H55.0839C46.1735 15 39 22.1734 39 31.0838V224.09C39 233 46.1734 240.174 55.0838 240.174H199.838C208.749 240.174 216.011 232.956 216.011 224.045L216.009 75.1493L155.608 15Z" fill="url(#paint1_linear)"/>
<path d="M101.321 226.48C110.361 226.48 113.601 218.92 113.601 212C113.601 205.08 110.361 197.52 101.321 197.52C92.3206 197.52 89.0406 205.08 89.0406 212C89.0406 218.92 92.3206 226.48 101.321 226.48ZM101.321 221.88C95.8806 221.88 94.0006 216.56 94.0006 212C94.0006 207.68 95.8806 202.12 101.321 202.12C106.761 202.12 108.641 207.4 108.641 212C108.641 216.28 106.721 221.88 101.321 221.88ZM119.416 198V226H127.896C138.176 226 141.536 218.4 141.536 212C141.536 205.04 137.856 198 128.056 198H119.416ZM128.576 221.48H124.216V202.52H129.016C134.336 202.52 136.576 207.28 136.576 212C136.576 216.4 134.536 221.48 128.576 221.48ZM156.305 226.48C161.825 226.48 166.145 223.44 166.145 218.04C166.145 212.12 161.105 210.36 157.025 208.92C154.105 207.96 151.665 207.12 151.665 205.08C151.665 203.16 153.145 202.08 155.665 202.08C158.305 202.08 159.905 203.32 160.625 204.96L164.945 203.52C163.945 200.08 160.865 197.52 155.985 197.52C150.105 197.52 146.785 200.96 146.785 205.04C146.785 210.36 151.265 211.92 155.265 213.28C158.425 214.36 161.265 215.36 161.265 218.04C161.265 220.6 159.345 221.92 156.465 221.92C153.585 221.92 151.345 220.16 150.185 217.6L145.745 219.24C147.265 223.68 151.145 226.48 156.305 226.48Z" fill="url(#paint2_linear)"/>
<path d="M178 58V158H78V58H178ZM170.857 65.6923H120.857V88.7692H170.857V65.6923ZM113.714 65.6923H85.1428V88.7692H113.714V65.6923ZM170.857 96.4617H120.857V119.538H170.857V96.4617ZM113.714 96.4617H85.1428V119.538H113.714V96.4617ZM170.857 127.231H120.857V150.307H170.857V127.231ZM113.714 127.231H85.1428V150.307H113.714V127.231Z" fill="url(#paint3_linear)"/>
<path opacity="0.25" d="M155.608 17V61.2306C155.608 70.141 162.867 77.1605 171.777 77.1605L216.009 77.1493V75.1493L155.608 17Z" fill="#282828"/>
<path d="M155.608 15V59.2306C155.608 68.141 162.867 75.1605 171.777 75.1605L216.009 75.1493L155.608 15Z" fill="url(#paint4_linear)"/>
<defs>
<filter id="filter0_f" x="23.8778" y="0.441412" width="207.255" height="255.418" filterUnits="userSpaceOnUse" color-interpolation-filters="sRGB">
<feFlood flood-opacity="0" result="BackgroundImageFix"/>
<feBlend mode="normal" in="SourceGraphic" in2="BackgroundImageFix" result="shape"/>
<feGaussianBlur stdDeviation="7.5611" result="effect1_foregroundBlur"/>
</filter>
<linearGradient id="paint0_linear" x1="39" y1="186.5" x2="39" y2="240.174" gradientUnits="userSpaceOnUse">
<stop offset="1e-07" stop-color="#689d6a"/>
<stop offset="1" stop-color="#427b58"/>
</linearGradient>
<linearGradient id="paint1_linear" x1="39" y1="15" x2="39" y2="240.174" gradientUnits="userSpaceOnUse">
<stop offset="1e-07" stop-color="#689d6a"/>
<stop offset="1" stop-color="#427b58"/>
</linearGradient>
<linearGradient id="paint2_linear" x1="39" y1="187" x2="39" y2="240" gradientUnits="userSpaceOnUse">
<stop offset="1e-07" stop-color="#689d6a"/>
<stop offset="1" stop-color="#427b58"/>
</linearGradient>
<linearGradient id="paint3_linear" x1="78" y1="58" x2="78" y2="158" gradientUnits="userSpaceOnUse">
<stop offset="1e-07" stop-color="#689d6a"/>
<stop offset="1" stop-color="#427b58"/>
</linearGradient>
<linearGradient id="paint4_linear" x1="155.608" y1="15" x2="155.608" y2="75.1605" gradientUnits="userSpaceOnUse">
<stop offset="1e-07" stop-color="#689d6a"/>
<stop offset="1" stop-color="#427b58"/>
</linearGradient>
</defs>
</svg>

<svg width="256" height="256" fill="none" version="1.1" viewBox="0 0 256 256" xmlns="http://www.w3.org/2000/svg">
  <path d="m55.08 15h100.5l60.4 60.15 2e-3 148.9c0 8.911-7.262 16.13-16.17 16.13h-144.8c-8.91 0-16.08-7.174-16.08-16.08v-193c0-8.91 7.173-16.08 16.08-16.08h1e-4z" fill="#ebdbb2"/>
  <path d="m199.8 240.2c8.911 0 16.17-7.218 16.17-16.13l-1e-3 -37.55h-177v37.59c0 8.91 7.173 16.08 16.08 16.08h144.8z" fill="url(#paint0_linear)" opacity=".2"/>
  <path d="m155.6 20.32h-100.5c-5.973 0-10.76 4.792-10.76 10.76v193c0 5.973 4.792 10.76 10.76 10.76h144.8c5.992 0 10.85-4.856 10.85-10.81v-148.9l-55.08-54.83zm0-5.319h-100.5c-8.91 0-16.08 7.173-16.08 16.08v193c0 8.91 7.173 16.08 16.08 16.08h144.8c8.911 0 16.17-7.218 16.17-16.13l-2e-3 -148.9-60.4-60.15z" clip-rule="evenodd" fill="url(#paint1_linear)" fill-rule="evenodd"/>
  <path d="m101.3 226.5c9.04 0 12.28-7.56 12.28-14.48s-3.24-14.48-12.28-14.48c-9 0-12.28 7.56-12.28 14.48s3.28 14.48 12.28 14.48zm0-4.6c-5.44 0-7.32-5.32-7.32-9.88 0-4.32 1.88-9.88 7.32-9.88 5.44 0 7.32 5.28 7.32 9.88 0 4.28-1.92 9.88-7.32 9.88zm18.1-23.88v28h8.48c10.28 0 13.64-7.6 13.64-14 0-6.96-3.68-14-13.48-14h-8.64zm9.16 23.48h-4.36v-18.96h4.8c5.32 0 7.56 4.76 7.56 9.48 0 4.4-2.04 9.48-8 9.48zm27.73 5c5.52 0 9.84-3.04 9.84-8.44 0-5.92-5.04-7.68-9.12-9.12-2.92-0.96-5.36-1.8-5.36-3.84 0-1.92 1.48-3 4-3 2.64 0 4.24 1.24 4.96 2.88l4.32-1.44c-1-3.44-4.08-6-8.96-6-5.88 0-9.2 3.44-9.2 7.52 0 5.32 4.48 6.88 8.48 8.24 3.16 1.08 6 2.08 6 4.76 0 2.56-1.92 3.88-4.8 3.88s-5.12-1.76-6.28-4.32l-4.44 1.64c1.52 4.44 5.4 7.24 10.56 7.24z" fill="url(#paint2_linear)"/>
  <path d="m178 58v100h-100v-100h100zm-7.143 7.692h-50v23.08h50v-23.08zm-57.14 0h-28.57v23.08h28.57v-23.08zm57.14 30.77h-50v23.08h50v-23.08zm-57.14 0h-28.57v23.08h28.57v-23.08zm57.14 30.77h-50v23.08h50v-23.08zm-57.14 0h-28.57v23.08h28.57v-23.08z" fill="url(#paint3_linear)"/>
  <path d="m155.6 17v44.23c0 8.91 7.259 15.93 16.17 15.93l44.23-0.0112v-2l-60.4-58.15z" fill="#282828" opacity=".25"/>
  <path d="m155.6 15v44.23c0 8.91 7.259 15.93 16.17 15.93l44.23-0.0112-60.4-60.15z" fill="url(#paint4_linear)"/>
  <defs>
    <linearGradient id="paint0_linear" x1="39" x2="39" y1="186.5" y2="240.2" gradientUnits="userSpaceOnUse">
      <stop stop-color="#689d6a" offset="1e-7"/>
      <stop stop-color="#427b58" offset="1"/>
    </linearGradient>
    <linearGradient id="paint1_linear" x1="39" x2="39" y1="15" y2="240.2" gradientUnits="userSpaceOnUse">
      <stop stop-color="#689d6a" offset="1e-7"/>
      <stop stop-color="#427b58" offset="1"/>
    </linearGradient>
    <linearGradient id="paint2_linear" x1="39" x2="39" y1="187" y2="240" gradientUnits="userSpaceOnUse">
      <stop stop-color="#689d6a" offset="1e-7"/>
      <stop stop-color="#427b58" offset="1"/>
    </linearGradient>
    <linearGradient id="paint3_linear" x1="78" x2="78" y1="58" y2="158" gradientUnits="userSpaceOnUse">
      <stop stop-color="#689d6a" offset="1e-7"/>
      <stop stop-color="#427b58" offset="1"/>
    </linearGradient>
    <linearGradient id="paint4_linear" x1="155.6" x2="155.6" y1="15" y2="75.16" gradientUnits="userSpaceOnUse">
      <stop stop-color="#689d6a" offset="1e-7"/>
      <stop stop-color="#427b58" offset="1"/>
    </linearGradient>
  </defs>
</svg>
